X:1
T:Title
%%score { ( 1 3 ) | ( 2 4 ) }
L:1/8
M:4/4
K:Eb
V:1 treble nm="Grand Piano"
V:3 treble 
V:2 bass 
V:4 bass 
V:1
 z4 z2[Q:1/4=94] G2 | G3 F E2 G2 | [GB]3 [FA] [EG]2 [EG]2 | [FA]3 [EG] [DF]2 [FA]2 | %4
[M:3/4] [EG]3 F E2 |[M:1/4] G2 |[M:4/4] G3 F E2 G2 | [GB]3 [FA] [EG]2 [Ge]2 | %8
 [Ge]3 [Ac] [GB]2 [EG]2 |[M:11/16] [EG]/-[EG]/-[EG]-<[EG]FE3/2 |[M:3/8] BcB | %11
[M:4/4] G6[K:bass][K:treble] z2 | A6 z2 | A6[K:bass][K:treble] z2 | G6 z2 | %15
 G6[K:bass][K:treble] z2 | A6 z2 | A6[K:bass][K:treble] z2 |[M:3/4] E6 |] %19
V:2
 z4 z2 [E,B,E]2 | [E,B,E]3 [E,A,B,] [E,G,B,]2 [E,B,E]2 | [E,B,]3 [E,B,] [E,B,]2 [E,B,]2 | %3
 [B,,B,]3 [B,,B,] [B,,B,]2 [B,,B,]2 |[M:3/4] [B,,B,]3 [B,,A,B,] [E,G,B,]2 |[M:1/4] [E,B,E]2 | %6
[M:4/4] [E,B,E]3 [E,A,B,] [E,G,B,]2 [E,B,E]2 | [E,B,]3 [E,B,] [E,B,]2 [E,B,]2 | %8
 [E,E]3 [E,E] [E,E]2 [E,B,]2 |[M:11/16] [B,,B,]/-[B,,B,]/-[B,,B,]-<[B,,B,][B,,A,B,][E,G,B,]3/2 | %10
[M:3/8][K:treble] GAG |[M:4/4] E4[K:bass] z4[K:treble] | F4[K:bass] z4[K:treble] | %13
 F4[K:bass] z4[K:treble] | E4[K:bass] z4[K:treble] | E4[K:bass] z4[K:treble] | %16
 F4[K:bass] z4[K:treble] | F4[K:bass] z4 |[M:3/4] z2 A,A, G,2 |] %19
V:3
 x8 | x8 | x8 | x8 |[M:3/4] x6 |[M:1/4] x2 |[M:4/4] x8 | x8 | x8 |[M:11/16] x11/2 |[M:3/8] x3 | %11
[M:4/4] z[K:bass] B, B,D/C/ B,[K:treble]BcB | z B, B,D/C/ B,FcB | %13
 z[K:bass] B, B,D/C/ B,[K:treble]FBA | z B, B,D/C/ B,BcB | z[K:bass] B, B,D/C/ B,[K:treble]BcB | %16
 z B, B,D/C/ B,FcB | z[K:bass] B, B,D/C/ B,[K:treble][B,DF][B,EG][B,DF] |[M:3/4] G,2 DC B,2 |] %19
V:4
 x8 | x8 | x8 | x8 |[M:3/4] x6 |[M:1/4] x2 |[M:4/4] x8 | x8 | x8 |[M:11/16] x11/2 | %10
[M:3/8][K:treble] x3 |[M:4/4] z[K:bass] E,E,[E,B,] E,[K:treble]GAG | %12
 z[K:bass] B,,B,,[B,,B,] B,,D[K:treble]AG | z[K:bass] B,,B,,[B,,B,] B,,D[K:treble]GF | %14
 z[K:bass] E,E,[E,B,] E,[K:treble]GAG | z[K:bass] E,E,[E,B,] E,[K:treble]GAG | %16
 z[K:bass] B,,B,,[B,,B,] B,,D[K:treble]AG | z[K:bass] B,,B,,[B,,B,] B,,B,,B,,B,, |[M:3/4] E,6 |] %19

